docs/images/icons/prev.svg

<svg width="6.4" height="10.6" fill="none" xmlns="http://www.w3.org/2000/svg"><path d="M6.05 10.26c.19-.18.19-.48 0-.66L1.4 5.3 6.05.99c.19-.18.19-.48 0-.66a.534.534 0 0 0-.71 0l-5 4.64c-.19.18-.19.47 0 .65l5 4.64c.2.18.51.18.71 0Z" fill="#3742F3" fill-rule="evenodd"/><path d="m1.7 5.3 4.48 4.16q.12.1.17.23.05.11.05.24t-.05.24q-.05.13-.17.24-.09.08-.19.13-.14.06-.29.06-.16 0-.29-.06-.11-.05-.2-.13l-5-4.64q-.12-.11-.17-.24Q0 5.42 0 5.3q0-.13.04-.24.05-.13.17-.24l5-4.64q.09-.08.2-.13Q5.54 0 5.7 0q.15 0 .28.05.11.05.2.13.12.11.17.24.05.11.05.24T6.35.9q-.05.13-.17.23L1.7 5.3Zm-.15-.14L6.05.99c.19-.18.19-.48 0-.66a.534.534 0 0 0-.71 0l-5 4.64c-.19.18-.19.47 0 .65l5 4.64c.2.18.51.18.71 0 .19-.18.19-.48 0-.66l-4.5-4.17-.15-.13.15-.14Z" fill="#3742F3" fill-rule="evenodd"/></svg>

<svg width="6.400391" height="10.599976" viewBox="0 0 6.40039 10.6" fill="none" xmlns="http://www.w3.org/2000/svg" xmlns:xlink="http://www.w3.org/1999/xlink">
	<desc>
			Created with Pixso.
	</desc>
	<defs/>
	<path id="Vector" d="M6.05 10.26C6.24 10.08 6.24 9.78 6.05 9.6L1.4 5.3L6.05 0.99C6.24 0.81 6.24 0.51 6.05 0.33C5.85 0.15 5.54 0.15 5.34 0.33L0.34 4.97C0.15 5.15 0.15 5.44 0.34 5.62L5.34 10.26C5.54 10.44 5.85 10.44 6.05 10.26Z" fill="#3742F3" fill-opacity="1.000000" fill-rule="evenodd"/>
	<path id="Vector" d="M1.7 5.3L6.18 9.46L6.18 9.46Q6.3 9.56 6.35 9.69Q6.4 9.8 6.4 9.93Q6.4 10.06 6.35 10.17Q6.3 10.3 6.18 10.41Q6.09 10.49 5.99 10.54Q5.85 10.6 5.7 10.6Q5.54 10.6 5.41 10.54Q5.3 10.49 5.21 10.41L0.21 5.77Q0.09 5.66 0.04 5.53Q0 5.42 0 5.3Q0 5.17 0.04 5.06Q0.09 4.93 0.21 4.82L5.21 0.18Q5.3 0.1 5.41 0.05Q5.54 0 5.7 0Q5.85 0 5.98 0.05Q6.09 0.1 6.18 0.18Q6.3 0.29 6.35 0.42Q6.4 0.53 6.4 0.66Q6.4 0.79 6.35 0.9Q6.3 1.03 6.18 1.13L1.7 5.3ZM1.55 5.16L6.05 0.99C6.24 0.81 6.24 0.51 6.05 0.33C5.85 0.15 5.54 0.15 5.34 0.33L0.34 4.97C0.15 5.15 0.15 5.44 0.34 5.62L5.34 10.26C5.54 10.44 5.85 10.44 6.05 10.26C6.24 10.08 6.24 9.78 6.05 9.6L1.55 5.43L1.4 5.3L1.55 5.16Z" fill="#3742F3" fill-opacity="1.000000" fill-rule="evenodd"/>
</svg>
